svg/u1f513.svg

<svg viewBox="0 0 128 128" xmlns="http://www.w3.org/2000/svg">
  <defs/>
  <path d="M103.65,62.7 L103.64,62.7 C103.52,60.25 100.92,57.96 96.43,56.61 C86.82,53.72 76.16,52.03 64,51.93 C51.85,52.03 41.19,53.72 31.57,56.61 C27.08,57.96 24.5,60.25 24.37,62.7 L24.35,62.7 L24.35,63.02 C24.35,63.04 24.35,63.05 24.35,63.07 L24.35,112.78 C24.24,115.58 27.37,118.58 34.61,120.63 C42.09,122.75 52.21,124.12 63.99,124.12 C75.77,124.12 85.89,122.75 93.37,120.63 C100.96,118.48 104.03,115.29 103.59,112.38 L103.63,112.38 L103.63,62.7 Z" fill="#E2A610"/>
  <path d="M71.9,108.24 L67.41,97.66 C69.97,96.42 71.74,93.8 71.74,90.76 C71.74,86.52 68.3,83.09 64.07,83.09 C59.84,83.09 56.4,86.53 56.4,90.76 C56.4,93.61 57.96,96.1 60.27,97.42 L56.09,108.31 C55.56,109.69 56.58,111.16 58.05,111.16 L69.97,111.16 C71.47,111.16 72.48,109.62 71.9,108.24 Z" fill="#4E342E"/>
  <path d="M71.47,107.26 L56.48,107.26 L56.08,108.31 C55.55,109.69 56.57,111.16 58.04,111.16 L69.96,111.16 C71.47,111.16 72.48,109.62 71.89,108.24 L71.47,107.26 Z" fill="#9E740B"/>
  <path d="M60.95,95.4 C61.13,94.88 60.94,94.32 60.5,94 C59.9,93.56 59.09,92.78 58.58,91.54 C56.72,87.06 58.93,85.07 58.93,85.07 C57.37,86.47 56.39,88.5 56.39,90.76 C56.39,93.61 57.95,96.1 60.26,97.42 L60.95,95.4 Z" fill="#9E740B"/>
  <path d="M69.46,85.3 C69.46,85.3 71.66,89.72 69.14,92.55 C68.28,93.51 67.55,94.02 67.01,94.27 C66.48,94.52 66.24,95.15 66.49,95.68 L67.42,97.64 C69.98,96.4 71.75,93.78 71.75,90.74 C71.73,87.49 69.46,85.3 69.46,85.3 Z" fill="#9E740B"/>
  <path d="M94.74,55.95 C85.63,53.3 75.52,51.76 64,51.66 C52.48,51.75 42.37,53.3 33.26,55.94 C24.13,58.59 23.22,65.2 36.15,68.74 C43.24,70.68 52.84,71.93 64,71.93 C75.16,71.93 84.76,70.68 91.85,68.74 C104.78,65.21 103.87,58.59 94.74,55.95 Z" fill="#FDD835"/>
  <path d="M91.15,42.21 C91.15,42.21 90.78,43.93 85.93,43.93 C81.08,43.93 82.05,42.21 82.05,42.21 L82.05,36.15 C82.05,25.26 75.54,14.99 63.99,14.99 C54.59,14.99 46.93,23.14 46.93,33.15 L46.93,62.21 C46.93,62.21 44.82,63.93 40.98,63.93 C37.14,63.93 35.84,62.21 35.84,62.21 L35.84,33.16 C35.85,17.02 48.48,3.89 64,3.89 C79.52,3.89 91.15,18.66 91.15,36.15 L91.15,42.21 Z" fill="#84B0C1"/>
  <path d="M92.107,42.416 Q91.571,44.909 85.93,44.909 Q82.445,44.909 81.424,43.702 Q80.724,42.875 81.071,41.993 L81.071,36.15 Q81.071,27.834 76.58,22.089 Q71.795,15.969 63.99,15.969 Q57.363,15.969 52.649,20.987 Q47.909,26.031 47.909,33.15 L47.909,62.675 L47.549,62.969 Q45.169,64.909 40.98,64.909 Q36.653,64.909 35.059,62.801 L35.059,62.8 L34.861,62.538 L34.861,33.16 Q34.869,20.66 43.398,11.794 Q51.944,2.911 64,2.911 Q75.964,2.911 84.15,12.838 Q92.129,22.514 92.129,36.15 L92.129,42.314 Z M90.171,42.025 L90.171,36.15 Q90.171,23.218 82.64,14.084 Q75.041,4.869 64,4.869 Q52.777,4.869 44.809,13.151 Q36.826,21.449 36.819,33.16 L36.819,61.846 Q37.927,62.951 40.98,62.951 Q44.143,62.951 45.951,61.72 L45.951,33.15 Q45.951,25.255 51.221,19.646 Q56.516,14.011 63.99,14.011 Q72.75,14.011 78.123,20.883 Q83.029,27.16 83.029,36.15 L83.029,42.467 L83.002,42.516 Q83.558,42.951 85.93,42.951 Q88.684,42.951 89.846,42.236 Q90.105,42.076 90.171,42.025 Z" fill="#84B0C1"/>
  <path d="M41.21,32.17 C40.82,34.14 40.25,38.65 38.75,38.54 C37.5,38.45 37.32,35.91 37.31,33.91 C37.3,31.91 37.91,25.69 40.33,19.96 C41.24,17.8 45.07,11.83 48.81,13.75 C51.26,15.01 47.75,19.4 46.28,21.2 C44.32,23.61 42.05,27.92 41.21,32.17 Z" fill="#B9E4EA"/>
  <path d="M92.16,61.8 A6.42 3.27 0 1 1 79.32,61.8 A6.42 3.27 0 1 1 92.16,61.8 Z" fill="#9E740B"/>
</svg>

<svg viewBox="0 0 128 128" xmlns="http://www.w3.org/2000/svg">
  <g>
    <path d="M103.65,62.7h-0.01c-0.12-2.45-2.72-4.74-7.21-6.09c-9.61-2.89-20.27-4.58-32.43-4.68 c-12.15,0.1-22.81,1.79-32.43,4.68c-4.49,1.35-7.07,3.64-7.2,6.09h-0.02v0.32c0,0.02,0,0.03,0,0.05v49.71 c-0.11,2.8,3.02,5.8,10.26,7.85c7.48,2.12,17.6,3.49,29.38,3.49s21.9-1.37,29.38-3.49c7.59-2.15,10.66-5.34,10.22-8.25h0.04V62.7z" fill="#E2A610"/>
    <line fill="#E2A610" x1="24.35" x2="103.65" y1="63.43" y2="63.43"/>
    <g>
      <path d="M71.9,108.24l-4.49-10.58c2.56-1.24,4.33-3.86,4.33-6.9c0-4.24-3.44-7.67-7.67-7.67 s-7.67,3.44-7.67,7.67c0,2.85,1.56,5.34,3.87,6.66l-4.18,10.89c-0.53,1.38,0.49,2.85,1.96,2.85h11.92 C71.47,111.16,72.48,109.62,71.9,108.24z" fill="#4E342E"/>
      <path d="M71.47,107.26H56.48l-0.4,1.05c-0.53,1.38,0.49,2.85,1.96,2.85h11.92c1.51,0,2.52-1.54,1.93-2.92 L71.47,107.26z" fill="#9E740B"/>
      <path d="M60.95,95.4c0.18-0.52-0.01-1.08-0.45-1.4c-0.6-0.44-1.41-1.22-1.92-2.46 c-1.86-4.48,0.35-6.47,0.35-6.47c-1.56,1.4-2.54,3.43-2.54,5.69c0,2.85,1.56,5.34,3.87,6.66L60.95,95.4z" fill="#9E740B"/>
      <path d="M69.46,85.3c0,0,2.2,4.42-0.32,7.25c-0.86,0.96-1.59,1.47-2.13,1.72 c-0.53,0.25-0.77,0.88-0.52,1.41l0.93,1.96c2.56-1.24,4.33-3.86,4.33-6.9C71.73,87.49,69.46,85.3,69.46,85.3z" fill="#9E740B"/>
    </g>
    <path d="M94.74,55.95C85.63,53.3,75.52,51.76,64,51.66c-11.52,0.09-21.63,1.64-30.74,4.28 c-9.13,2.65-10.04,9.26,2.89,12.8c7.09,1.94,16.69,3.19,27.85,3.19s20.76-1.25,27.85-3.19C104.78,65.21,103.87,58.59,94.74,55.95z" fill="#FDD835"/>
    <g>
      <path d="M91.15,42.21c0,0-0.37,1.72-5.22,1.72 c-4.85,0-3.88-1.72-3.88-1.72v-6.06c0-10.89-6.51-21.16-18.06-21.16c-9.4,0-17.06,8.15-17.06,18.16v29.06c0,0-2.11,1.72-5.95,1.72 s-5.14-1.72-5.14-1.72V33.16C35.85,17.02,48.48,3.89,64,3.89s27.15,14.77,27.15,32.26V42.21z" fill="#84B0C1" stroke="#84B0C1" stroke-width="1.9584" stroke-miterlimit="10"/>
      <path d="M41.21,32.17c-0.39,1.97-0.96,6.48-2.46,6.37c-1.25-0.09-1.43-2.63-1.44-4.63s0.6-8.22,3.02-13.95 c0.91-2.16,4.74-8.13,8.48-6.21c2.45,1.26-1.06,5.65-2.53,7.45C44.32,23.61,42.05,27.92,41.21,32.17z" fill="#B9E4EA"/>
      <ellipse cx="85.74" cy="61.8" rx="6.42" ry="3.27" fill="#9E740B"/>
    </g>
  </g>
</svg>
